img/icon/tweeter.svg

<svg width="60" height="61" viewBox="0 0 60 61" fill="none" xmlns="http://www.w3.org/2000/svg">
<g id="3">
<circle id="Ellipse" cx="30" cy="30.7158" r="30" fill="#EFF6F1"/>
<g id="Twiter">
<path id="Vector" d="M40.6602 24.6742C39.8852 25.011 39.0652 25.2328 38.2261 25.3328C39.1079 24.8164 39.7711 23.9961 40.0912 23.0257C39.2575 23.5132 38.3469 23.8553 37.3984 24.0372C36.9991 23.6186 36.5187 23.2857 35.9866 23.0585C35.4546 22.8313 34.8818 22.7148 34.3033 22.7158C31.9609 22.7158 30.0654 24.5839 30.0654 26.8866C30.0637 27.2069 30.1004 27.5263 30.1747 27.8378C28.4951 27.7591 26.8504 27.3306 25.3458 26.5798C23.8413 25.829 22.51 24.7724 21.4372 23.4777C21.0608 24.1122 20.8618 24.8361 20.8608 25.5738C20.8608 27.02 21.6154 28.2984 22.7547 29.0473C22.0797 29.0313 21.4185 28.8526 20.8273 28.5265V28.5781C20.8273 30.6011 22.2907 32.2841 24.2276 32.6671C23.8634 32.7642 23.488 32.8134 23.1111 32.8135C22.8436 32.814 22.5767 32.788 22.3144 32.736C22.8528 34.3931 24.42 35.5983 26.2764 35.6327C24.7679 36.7953 22.9159 37.4236 21.0115 37.419C20.6734 37.4185 20.3357 37.3984 20 37.3587C21.9374 38.5958 24.1895 39.2502 26.4882 39.244C34.2943 39.244 38.5589 32.8867 38.5589 27.373C38.5589 27.1922 38.5541 27.0114 38.5455 26.8349C39.3733 26.2462 40.0893 25.5145 40.6602 24.6742Z" fill="#274C5B"/>
</g>
</g>
</svg>

<svg width="60" height="61" fill="none" xmlns="http://www.w3.org/2000/svg"><circle cx="30" cy="30.716" r="30" fill="#EFF6F1"/><path d="M40.66 24.674a8.686 8.686 0 01-2.434.659 4.197 4.197 0 001.865-2.307 8.51 8.51 0 01-2.693 1.011 4.266 4.266 0 00-3.095-1.321c-2.342 0-4.238 1.868-4.238 4.17-.001.32.035.64.11.952a12.082 12.082 0 01-8.738-4.36 4.12 4.12 0 00-.576 2.096 4.16 4.16 0 001.894 3.473 4.197 4.197 0 01-1.928-.52v.051c0 2.023 1.464 3.706 3.4 4.09a4.376 4.376 0 01-1.116.145 4.032 4.032 0 01-.797-.077c.539 1.657 2.106 2.862 3.962 2.897A8.59 8.59 0 0120 37.359a11.996 11.996 0 006.488 1.885c7.806 0 12.07-6.357 12.07-11.871 0-.18-.004-.362-.013-.538a8.54 8.54 0 002.115-2.16z" fill="#274C5B"/></svg>
